mobile/24/svg/arrow-clockwise-24.svg

<svg width="24" height="24" viewBox="0 0 24 24" fill="none" xmlns="http://www.w3.org/2000/svg">
<path d="M20.447 12.751H18.696C18.319 16.397 15.23 19.25 11.485 19.25C7.48699 19.25 4.23499 15.998 4.23499 12C4.23499 8.002 7.48699 4.75 11.485 4.75C14.253 4.75 16.639 6.323 17.858 8.609L16.406 10.061C16.06 10.408 16.305 11 16.795 11H20.966C21.27 11 21.516 10.754 21.516 10.45V6.279C21.516 5.789 20.924 5.544 20.577 5.89L19.155 7.312C17.572 4.73 14.73 3 11.485 3C6.52199 3 2.48499 7.037 2.48499 12C2.48499 16.963 6.52199 21 11.485 21C16.194 21 20.063 17.363 20.447 12.751Z" fill="black"/>
</svg>

<svg width="24" height="24" fill="none" xmlns="http://www.w3.org/2000/svg"><path d="M20.447 12.751h-1.751c-.377 3.646-3.466 6.499-7.211 6.499-3.998 0-7.25-3.252-7.25-7.25s3.252-7.25 7.25-7.25c2.768 0 5.154 1.573 6.373 3.859l-1.452 1.452a.55.55 0 0 0 .389.939h4.171a.55.55 0 0 0 .55-.55V6.279a.55.55 0 0 0-.939-.389l-1.422 1.422C17.572 4.73 14.73 3 11.485 3c-4.963 0-9 4.037-9 9s4.037 9 9 9c4.709 0 8.578-3.637 8.962-8.249z" fill="#000"/></svg>
